local/share/icons/dracula-icons-main/scalable/apps/mysql-workbench.svg

<?xml version="1.0" encoding="UTF-8"?>
<svg xmlns="http://www.w3.org/2000/svg" xmlns:xlink="http://www.w3.org/1999/xlink" width="64" height="64" viewBox="0 0 64 64">
<path fill-rule="nonzero" fill="rgb(14.901961%, 33.333333%, 48.627451%)" fill-opacity="1" d="M 15.609375 8.464844 C 15.609375 12.410156 12.410156 15.609375 8.464844 15.609375 C 4.519531 15.609375 1.324219 12.410156 1.324219 8.464844 C 1.324219 4.519531 4.519531 1.324219 8.464844 1.324219 C 12.410156 1.324219 15.609375 4.519531 15.609375 8.464844 Z M 15.609375 8.464844 "/>
<path fill-rule="nonzero" fill="rgb(100%, 100%, 100%)" fill-opacity="1" d="M 12.539062 12.484375 C 12.484375 12.449219 12.183594 12.277344 11.875 12.105469 C 11.226562 11.742188 10.578125 11.191406 10.578125 10.996094 C 10.578125 10.828125 10.789062 10.6875 11.113281 10.652344 C 11.269531 10.632812 11.472656 10.601562 11.566406 10.585938 L 11.738281 10.550781 L 11.484375 10.367188 C 11.246094 10.191406 11.0625 10.105469 10.519531 9.914062 C 10.167969 9.789062 9.914062 9.5 9.625 8.902344 C 8.878906 7.339844 8.738281 7.085938 8.484375 6.789062 C 8.199219 6.457031 7.785156 6.113281 7.230469 5.742188 C 6.6875 5.375 6.601562 5.34375 6.210938 5.34375 C 5.898438 5.34375 5.832031 5.324219 5.636719 5.191406 C 5.328125 4.980469 5.023438 4.851562 4.832031 4.851562 C 4.589844 4.847656 4.617188 5.023438 4.925781 5.402344 C 5.222656 5.769531 5.292969 5.894531 5.441406 6.328125 C 5.5 6.507812 5.664062 6.851562 5.804688 7.09375 C 5.945312 7.335938 6.0625 7.558594 6.0625 7.585938 C 6.0625 7.609375 6.003906 7.800781 5.929688 8.007812 C 5.773438 8.460938 5.730469 8.941406 5.8125 9.300781 C 5.960938 9.925781 6.140625 10.007812 6.242188 9.503906 C 6.332031 9.066406 6.488281 8.800781 6.652344 8.800781 C 6.703125 8.800781 6.863281 9.050781 7.105469 9.496094 C 7.308594 9.875 7.605469 10.359375 7.761719 10.566406 C 7.917969 10.773438 8.035156 10.953125 8.023438 10.964844 C 7.996094 10.992188 7.589844 10.652344 7.292969 10.347656 C 7.164062 10.21875 6.980469 9.980469 6.886719 9.820312 C 6.71875 9.542969 6.707031 9.535156 6.664062 9.644531 C 6.640625 9.710938 6.605469 9.835938 6.585938 9.921875 C 6.53125 10.171875 6.378906 10.332031 6.191406 10.332031 C 5.929688 10.332031 5.742188 10.070312 5.589844 9.488281 C 5.488281 9.101562 5.511719 8.28125 5.640625 7.867188 C 5.722656 7.605469 5.722656 7.601562 5.597656 7.472656 C 5.441406 7.304688 5.351562 7.128906 5.160156 6.59375 C 5.039062 6.253906 4.925781 6.058594 4.644531 5.699219 C 4.390625 5.375 4.273438 5.179688 4.25 5.046875 C 4.175781 4.621094 4.339844 4.375 4.691406 4.382812 C 4.960938 4.390625 5.511719 4.574219 5.75 4.738281 C 5.890625 4.835938 6.03125 4.878906 6.300781 4.902344 C 6.96875 4.972656 7.695312 5.394531 8.460938 6.164062 C 9.199219 6.910156 9.753906 7.789062 9.960938 8.539062 C 10.101562 9.039062 10.320312 9.277344 10.921875 9.574219 C 11.363281 9.792969 11.5 9.890625 11.898438 10.289062 C 12.15625 10.542969 12.367188 10.789062 12.367188 10.832031 C 12.367188 10.933594 12.15625 11.007812 11.746094 11.046875 C 11.167969 11.105469 11.171875 11.09375 11.605469 11.402344 C 12.34375 11.925781 12.609375 12.183594 12.6875 12.445312 C 12.722656 12.570312 12.683594 12.578125 12.539062 12.484375 Z M 6.183594 6.210938 C 6.144531 6.117188 6.066406 6.015625 6.011719 5.984375 C 5.894531 5.921875 5.882812 5.824219 5.984375 5.742188 C 6.089844 5.652344 6.398438 5.796875 6.4375 5.949219 C 6.527344 6.320312 6.320312 6.535156 6.183594 6.210938 Z M 6.183594 6.210938 "/>
</svg>

<svg width="64" height="64" version="1.1" viewBox="0 0 16.933 16.933" xmlns="http://www.w3.org/2000/svg">
 <circle cx="8.4665" cy="8.4665" r="7.1436" fill="#26557c" style="paint-order:stroke fill markers"/>
 <path d="m12.539 12.485c-0.05459-0.03566-0.35414-0.20677-0.66562-0.38024-0.64835-0.36107-1.295-0.9139-1.295-1.1071 0-0.17142 0.21201-0.30845 0.53614-0.34658 0.15556-0.01829 0.35952-0.04821 0.45323-0.0665l0.17038-0.03326-0.25261-0.18454c-0.23897-0.17458-0.42399-0.26122-0.96639-0.45256-0.35118-0.12387-0.60602-0.41265-0.89315-1.012-0.74795-1.5613-0.8865-1.8179-1.1407-2.1124-0.28619-0.33164-0.69921-0.67717-1.2538-1.0489-0.54455-0.365-0.62936-0.39805-1.0221-0.39805-0.31278 0-0.37869-0.01732-0.57345-0.15069-0.30767-0.21066-0.61334-0.34093-0.80296-0.3422-0.24413-0.00167-0.21527 0.17272 0.091259 0.55138 0.29755 0.36757 0.36778 0.49369 0.51597 0.9266 0.060998 0.17819 0.22573 0.52311 0.36608 0.76649s0.25517 0.46399 0.25517 0.49027c0 0.026267-0.058833 0.21615-0.13074 0.42196-0.15807 0.45241-0.2018 0.93621-0.11705 1.2949 0.14707 0.62247 0.32765 0.70725 0.4304 0.20207 0.089183-0.43853 0.24323-0.7035 0.4083-0.70236 0.050787 3.326e-4 0.21263 0.24904 0.45144 0.69365 0.20475 0.3812 0.50055 0.86273 0.65733 1.0701 0.15678 0.20734 0.27494 0.38704 0.26258 0.39934-0.0293 0.029165-0.435-0.31281-0.73081-0.61597-0.12805-0.13124-0.31166-0.36959-0.40802-0.5297-0.1663-0.27624-0.17752-0.28505-0.22-0.17289-0.024614 0.064994-0.060327 0.18938-0.079343 0.2764-0.054844 0.25099-0.20792 0.40984-0.39493 0.40984-0.26181 0-0.4496-0.26256-0.60221-0.84196-0.10197-0.38713-0.076096-1.2107 0.050935-1.6214 0.081922-0.26486 0.081874-0.26533-0.040071-0.39517-0.15698-0.16716-0.24634-0.34631-0.43956-0.88118-0.12255-0.33926-0.23579-0.53496-0.51706-0.8937-0.25293-0.32257-0.36995-0.51712-0.39312-0.65346-0.071806-0.42302 0.091863-0.66864 0.44053-0.66111 0.26957 0.00583 0.82152 0.19037 1.0593 0.35417 0.14027 0.096633 0.28041 0.13876 0.55183 0.16587 0.66767 0.066691 1.3954 0.49196 2.1585 1.2613 0.73912 0.7452 1.2956 1.6238 1.5025 2.3721 0.13862 0.5014 0.35771 0.73801 0.95922 1.0358 0.44162 0.21867 0.57738 0.31792 0.97833 0.7153 0.25605 0.25376 0.46554 0.49901 0.46554 0.54497 0 0.10103-0.20781 0.1729-0.62044 0.21457-0.57856 0.05842-0.57412 0.04725-0.14101 0.35456 0.73831 0.52389 1.0037 0.77922 1.0823 1.0411 0.0375 0.12504-0.0018 0.13603-0.14709 0.04113zm-6.3544-6.2722c-0.040388-0.096201-0.11814-0.19873-0.17279-0.22783-0.11625-0.061918-0.12823-0.16169-0.02924-0.24345 0.10613-0.087662 0.41413 0.054721 0.45317 0.20948 0.092868 0.36823-0.11533 0.58528-0.25115 0.2618z" fill="#ffffff" stroke-width=".30237"/>
</svg>
